X: 3
T: Lemonville, The
Z: JACKB
S: https://thesession.org/tunes/3323#setting25999
R: jig
M: 6/8
L: 1/8
K: Dmaj
|:f2g|a3 afd|f3 fdA|ded dAF|G3 e2f|
g3 gec|e3 ecA|cBA gfe|f3 f2g|
a3 afd|f3 fdA|ded def|B3 e2f|
g3 gec|efe ecA|cBA gfe|d3 d2A||
|:FGA ABc|ded def|g3 gfe|B3 B2d|
cea aec|cea aec|cea gfe|1fdB A2G:|2d3 d3||
